icons/proxmox.svg

<?xml version="1.0" encoding="UTF-8" standalone="no"?>
<!-- Created with Inkscape (http://www.inkscape.org/) -->

<svg
   width="147.24376"
   height="129.03929"
   id="svg3018"
   version="1.1"
   inkscape:version="1.1.2 (0a00cf5339, 2022-02-04, custom)"
   sodipodi:docname="proxmox.svg"
   inkscape:export-filename="S:\Proxmox-Logo-NEW\Standard-Logo\PNG\Proxmox_logo_standard_hex_800px.png"
   inkscape:export-xdpi="90"
   inkscape:export-ydpi="90"
   xmlns:inkscape="http://www.inkscape.org/namespaces/inkscape"
   xmlns:sodipodi="http://sodipodi.sourceforge.net/DTD/sodipodi-0.dtd"
   xmlns="http://www.w3.org/2000/svg"
   xmlns:svg="http://www.w3.org/2000/svg"
   xmlns:rdf="http://www.w3.org/1999/02/22-rdf-syntax-ns#"
   xmlns:cc="http://creativecommons.org/ns#"
   xmlns:dc="http://purl.org/dc/elements/1.1/">
  <sodipodi:namedview
     id="base"
     pagecolor="#ffffff"
     bordercolor="#666666"
     borderopacity="1.0"
     inkscape:pageopacity="0.0"
     inkscape:pageshadow="2"
     inkscape:zoom="0.7"
     inkscape:cx="253.57143"
     inkscape:cy="64.285714"
     inkscape:document-units="px"
     inkscape:current-layer="g3378"
     showgrid="false"
     inkscape:window-width="1920"
     inkscape:window-height="1009"
     inkscape:window-x="-1928"
     inkscape:window-y="-8"
     inkscape:window-maximized="1"
     showguides="true"
     inkscape:guide-bbox="true"
     objecttolerance="4"
     gridtolerance="2"
     guidetolerance="1"
     fit-margin-top="5"
     fit-margin-left="5"
     fit-margin-right="5"
     fit-margin-bottom="5"
     inkscape:showpageshadow="false"
     inkscape:pagecheckerboard="0" />
  <defs
     id="defs3020">
    <clipPath
       clipPathUnits="userSpaceOnUse"
       id="clipPath3102-1">
      <rect
         style="fill:#e57000;fill-opacity:1;fill-rule:evenodd;stroke:none"
         id="rect3104-7"
         width="436.40189"
         height="326.40991"
         x="-82.999916"
         y="-347.71387"
         transform="matrix(0.73449161,0.67861776,-0.78497193,0.61953133,0,0)" />
    </clipPath>
    <clipPath
       clipPathUnits="userSpaceOnUse"
       id="clipPath4746">
      <rect
         style="fill:#e57000;fill-opacity:1;fill-rule:evenodd;stroke:none"
         id="rect4748"
         width="436.40189"
         height="326.40991"
         x="-82.999916"
         y="-347.71387"
         transform="matrix(0.73449161,0.67861776,-0.78497193,0.61953133,0,0)" />
    </clipPath>
    <clipPath
       id="clipPath2999-2-3-4-1"
       clipPathUnits="userSpaceOnUse">
      <path
         inkscape:connector-curvature="0"
         id="path3001-8-8-6-0"
         d="M 0,14400 H 14400 V 0 H 0 Z" />
    </clipPath>
    <clipPath
       clipPathUnits="userSpaceOnUse"
       id="clipPath3102-4">
      <rect
         style="fill:#e57000;fill-opacity:1;fill-rule:evenodd;stroke:none"
         id="rect3104-1"
         width="436.40189"
         height="326.40991"
         x="-82.999916"
         y="-347.71387"
         transform="matrix(0.73449161,0.67861776,-0.78497193,0.61953133,0,0)" />
    </clipPath>
    <clipPath
       clipPathUnits="userSpaceOnUse"
       id="clipPath3008">
      <rect
         style="fill:#e57000;fill-opacity:1;fill-rule:evenodd;stroke:none"
         id="rect3010"
         width="436.40189"
         height="326.40991"
         x="-82.999916"
         y="-347.71387"
         transform="matrix(0.73449161,0.67861776,-0.78497193,0.61953133,0,0)" />
    </clipPath>
    <clipPath
       clipPathUnits="userSpaceOnUse"
       id="clipPath3102">
      <rect
         style="fill:#e57000;fill-opacity:1;fill-rule:evenodd;stroke:none"
         id="rect3104"
         width="436.40189"
         height="326.40991"
         x="-82.999916"
         y="-347.71387"
         transform="matrix(0.73449161,0.67861776,-0.78497193,0.61953133,0,0)" />
    </clipPath>
    <clipPath
       clipPathUnits="userSpaceOnUse"
       id="clipPath4814">
      <rect
         style="fill:#e57000;fill-opacity:1;fill-rule:evenodd;stroke:none"
         id="rect4816"
         width="436.40189"
         height="326.40991"
         x="-82.999916"
         y="-347.71387"
         transform="matrix(0.73449161,0.67861776,-0.78497193,0.61953133,0,0)" />
    </clipPath>
    <clipPath
       id="clipPath2999-2-3-4"
       clipPathUnits="userSpaceOnUse">
      <path
         inkscape:connector-curvature="0"
         id="path3001-8-8-6"
         d="M 0,14400 H 14400 V 0 H 0 Z" />
    </clipPath>
  </defs>
  <metadata
     id="metadata3023">
    <rdf:RDF>
      <cc:Work
         rdf:about="">
        <dc:format>image/svg+xml</dc:format>
        <dc:type
           rdf:resource="http://purl.org/dc/dcmitype/StillImage" />
      </cc:Work>
    </rdf:RDF>
  </metadata>
  <g
     transform="translate(1451.1374,38.932293)"
     id="layer1"
     inkscape:groupmode="layer"
     inkscape:label="Layer 1">
    <g
       id="g3378"
       transform="matrix(0.28026719,0,0,0.28026719,-1040.8325,61.254294)"
       inkscape:export-filename="S:\lucia\New-Logo-Symbol\Standard-Logo\PNG\Proxmox_logo_standard_hex_300px.png"
       inkscape:export-xdpi="90"
       inkscape:export-ydpi="90">
      <g
         id="g3016-9"
         style="fill:#000000"
         transform="matrix(0.85286594,0,0,0.85286594,-2204.7964,-970.06495)">
        <g
           style="font-style:normal;font-variant:normal;font-weight:normal;font-stretch:normal;font-size:144px;line-height:125%;font-family:Helion;-inkscape-font-specification:Helion;letter-spacing:0px;word-spacing:0px;fill:#000000;fill-opacity:1;stroke:none"
           id="text3093-5"
           clip-path="url(#clipPath3102-4)"
           transform="matrix(-0.99791979,0,0,0.99791979,1452.3586,746.04784)">
          <path
             d="M 276.30443,226.6231 466.89227,17.020605 C 459.49903,9.6280871 450.88762,3.8194321 441.05796,-0.40537695 431.22756,-4.6295171 420.6664,-6.7823721 409.37437,-6.8639479 397.38099,-6.7722031 386.39328,-4.3959326 376.41123,0.26487096 366.4286,4.9263417 357.75623,11.32398 350.39413,19.457805 L 276.30327,100.37282 202.69985,19.457805 C 195.07335,11.32397 186.19787,4.9263248 176.07344,0.2648493 165.94881,-4.395959 155.00175,-6.7722224 143.2322,-6.8639479 131.93978,-6.7823616 121.3786,-4.629505 111.5486,-0.40536951 101.71855,3.8194345 93.107122,9.6280871 85.714287,17.020605 L 276.30769,226.61752"
             id="path3098-5"
             inkscape:connector-curvature="0"
             sodipodi:nodetypes="ccccccccccccc"
             style="fill:#000000;fill-opacity:1" />
        </g>
        <g
           transform="matrix(0.99791979,0,0,-0.99791979,900.89604,1230.3576)"
           clip-path="url(#clipPath3102-4)"
           id="g3196-9"
           style="font-style:normal;font-variant:normal;font-weight:normal;font-stretch:normal;font-size:144px;line-height:125%;font-family:Helion;-inkscape-font-specification:Helion;letter-spacing:0px;word-spacing:0px;fill:#000000;fill-opacity:1;stroke:none">
          <path
             style="fill:#000000;fill-opacity:1"
             sodipodi:nodetypes="ccccccccccccc"
             inkscape:connector-curvature="0"
             id="path3198-1"
             d="M 276.30443,226.6231 466.89227,17.020605 C 459.49903,9.6280871 450.88762,3.8194321 441.05796,-0.40537695 431.22756,-4.6295171 420.6664,-6.7823721 409.37437,-6.8639479 397.38099,-6.7722031 386.39328,-4.3959326 376.41123,0.26487096 366.4286,4.9263417 357.75623,11.32398 350.39413,19.457805 L 276.30327,100.37282 202.69985,19.457805 C 195.07335,11.32397 186.19787,4.9263248 176.07344,0.2648493 165.94881,-4.395959 155.00175,-6.7722224 143.2322,-6.8639479 131.93978,-6.7823616 121.3786,-4.629505 111.5486,-0.40536951 101.71855,3.8194345 93.107122,9.6280871 85.714287,17.020605 L 276.30769,226.61752" />
        </g>
        <path
           style="font-style:normal;font-variant:normal;font-weight:normal;font-stretch:normal;font-size:1059.61px;line-height:125%;font-family:Helion;-inkscape-font-specification:Helion;letter-spacing:0px;word-spacing:0px;fill:#e57000;fill-opacity:1;stroke:none"
           d="m 1160.6292,988.20538 v 0 L 1017.3627,831.09306 c -8.333,-8.88721 -18.03061,-15.87754 -29.09279,-20.97078 -11.06252,-5.09255 -23.02366,-7.68889 -35.88343,-7.78914 -12.33843,0.0892 -23.87792,2.44147 -34.61849,7.05685 -10.74062,4.61613 -20.14972,10.96284 -28.22736,19.04016 L 1034.9383,988.20777 889.54063,1147.9854 c 8.07762,8.3329 17.48674,14.8349 28.22736,19.5062 10.74057,4.6712 22.28006,7.0457 34.61849,7.1234 12.89308,-0.1 24.92073,-2.6962 36.08307,-7.7891 11.16223,-5.0929 20.79325,-12.0833 28.89315,-20.9708 l 143.2662,-157.64917"
           id="path3278-4"
           inkscape:connector-curvature="0"
           sodipodi:nodetypes="cccccccccscscc" />
        <path
           sodipodi:nodetypes="cccccccccscscc"
           inkscape:connector-curvature="0"
           id="path3280-5"
           d="m 1192.6208,988.20538 v 0 l 143.2665,-157.11232 c 8.333,-8.88721 18.0306,-15.87754 29.0928,-20.97078 11.0625,-5.09255 23.0237,-7.68889 35.8834,-7.78914 12.3385,0.0892 23.878,2.44147 34.6185,7.05685 10.7407,4.61613 20.1498,10.96284 28.2274,19.04016 l -145.3977,159.77762 145.3977,159.77763 c -8.0776,8.3329 -17.4867,14.8349 -28.2274,19.5062 -10.7405,4.6712 -22.28,7.0457 -34.6184,7.1234 -12.8931,-0.1 -24.9208,-2.6962 -36.0831,-7.7891 -11.1623,-5.0929 -20.7933,-12.0833 -28.8932,-20.9708 L 1192.6211,988.20593"
           style="font-style:normal;font-variant:normal;font-weight:normal;font-stretch:normal;font-size:1059.61px;line-height:125%;font-family:Helion;-inkscape-font-specification:Helion;letter-spacing:0px;word-spacing:0px;fill:#e57000;fill-opacity:1;stroke:none" />
      </g>
    </g>
  </g>
</svg>

<svg viewBox="0 0 147.244 129.039" xmlns="http://www.w3.org/2000/svg"><defs><clipPath id="a" clipPathUnits="userSpaceOnUse"><path d="M-83-347.714h436.402v326.41H-83z" style="fill:#e57000;fill-opacity:1;fill-rule:evenodd;stroke:none" transform="matrix(.7345 .67862 -.78497 .61953 0 0)"/></clipPath></defs><g style="fill:#000"><g clip-path="url(#a)" style="font-style:normal;font-variant:normal;font-weight:400;font-stretch:normal;font-size:144px;line-height:125%;font-family:Helion;-inkscape-font-specification:Helion;letter-spacing:0;word-spacing:0;fill:#000;fill-opacity:1;stroke:none" transform="matrix(-.23853 0 0 .23853 139.53 6.637)"><path d="M276.304 226.623 466.892 17.021C459.5 9.628 450.888 3.819 441.058-.405c-9.83-4.225-20.392-6.377-31.684-6.459-11.993.092-22.98 2.468-32.963 7.129-9.982 4.661-18.655 11.059-26.017 19.193l-74.09 80.915L202.7 19.458c-7.627-8.134-16.502-14.532-26.627-19.193-10.124-4.661-21.071-7.037-32.84-7.129-11.293.082-21.854 2.234-31.684 6.459-9.83 4.224-18.442 10.033-25.835 17.426l190.594 209.597" style="fill:#000;fill-opacity:1"/></g><g clip-path="url(#a)" style="font-style:normal;font-variant:normal;font-weight:400;font-stretch:normal;font-size:144px;line-height:125%;font-family:Helion;-inkscape-font-specification:Helion;letter-spacing:0;word-spacing:0;fill:#000;fill-opacity:1;stroke:none" transform="matrix(.23853 0 0 -.23853 7.714 122.402)"><path d="M276.304 226.623 466.892 17.021C459.5 9.628 450.888 3.819 441.058-.405c-9.83-4.225-20.392-6.377-31.684-6.459-11.993.092-22.98 2.468-32.963 7.129-9.982 4.661-18.655 11.059-26.017 19.193l-74.09 80.915L202.7 19.458c-7.627-8.134-16.502-14.532-26.627-19.193-10.124-4.661-21.071-7.037-32.84-7.129-11.293.082-21.854 2.234-31.684 6.459-9.83 4.224-18.442 10.033-25.835 17.426l190.594 209.597" style="fill:#000;fill-opacity:1"/></g><path d="m1160.63 988.205-143.267-157.112c-8.333-8.887-18.03-15.877-29.093-20.97-11.063-5.093-23.024-7.69-35.884-7.79-12.338.09-23.877 2.442-34.618 7.057-10.74 4.616-20.15 10.963-28.227 19.04l145.397 159.778-145.397 159.777c8.077 8.333 17.486 14.835 28.227 19.507 10.74 4.67 22.28 7.045 34.618 7.123 12.894-.1 24.921-2.696 36.084-7.79 11.162-5.092 20.793-12.082 28.893-20.97l143.266-157.65m31.991 0 143.267-157.112c8.333-8.887 18.03-15.877 29.093-20.97 11.063-5.093 23.024-7.69 35.883-7.79 12.339.09 23.878 2.442 34.619 7.057 10.74 4.616 20.15 10.963 28.227 19.04l-145.397 159.778 145.397 159.777c-8.077 8.333-17.486 14.835-28.227 19.507-10.74 4.67-22.28 7.045-34.618 7.123-12.894-.1-24.921-2.696-36.084-7.79-11.162-5.092-20.793-12.082-28.893-20.97l-143.266-157.65" style="font-style:normal;font-variant:normal;font-weight:400;font-stretch:normal;font-size:1059.61px;line-height:125%;font-family:Helion;-inkscape-font-specification:Helion;letter-spacing:0;word-spacing:0;fill:#e57000;fill-opacity:1;stroke:none" transform="translate(-207.627 -171.69) scale(.23903)"/></g></svg>
